X: 43463
T: Yellow Barber
R: reel
M: 4/4
K: Dmajor
A,G,A,B, DEDB,|A,B,DF EDB,G,|A,CEF E2EF|GEEG FDED|
FA2BA2A=c|BAGB AFAg|(3fgf ec dBAG|1 FDEF D2DB,:|2 FDEF D2dB||
ABdc dedc|Acde fded|cdef edcd|edef gfeg|
(3fgf ec dBAd|BAFB ABde|fafe dBAG|1 FDEF D2 AB:|2 FDEF D2DB,||

